src/16/panel/uget-tray-downloading.svg

<svg xmlns="http://www.w3.org/2000/svg" width="16" height="16" version="1.1">
 <defs>
  <style id="current-color-scheme" type="text/css">
   .ColorScheme-Text { color:#dfdfdf; } .ColorScheme-Highlight { color:#4285f4; }
  </style>
 </defs>
 <path style="fill:currentColor" class="ColorScheme-Text" d="M 6.625,0.99996 C 6.625,0.99996 4.2981,1.017 4,3.625 V 4.5 10 H 2 V 4 H 1 V 9.75 C 1,11.5 2.75,11 2.75,11 H 4 V 12.375 C 4,15 6.625,15 6.625,15 H 11.375 C 14,15 14,12.375 14,12.375 V 7 H 11 V 9 H 12 L 9,13 6,9 H 7 V 4 H 11 V 5 H 14 V 3.625 C 14,3.625 14,0.99996 11.375,0.99996 Z"/>
 <path style="fill:currentColor" class="ColorScheme-Highlight" d="M 8 5 L 8 9 A 1.0001 1.0001 0 0 1 7.7480469 9.6621094 L 9 11.332031 L 10.251953 9.6640625 A 1.0001 1.0001 0 0 1 10 9 L 10 5 L 8 5 z"/>
</svg>

<svg xmlns="http://www.w3.org/2000/svg" width="16" height="16"><defs><style id="current-color-scheme" type="text/css">.ColorScheme-Text{color:#dfdfdf;}.ColorScheme-Highlight{color:#5294e2;}</style></defs><path d="M6.625 1S4.298 1.017 4 3.625V10H2V4H1v5.75C1 11.5 2.75 11 2.75 11H4v1.375C4 15 6.625 15 6.625 15h4.75C14 15 14 12.375 14 12.375V7h-3v2h1l-3 4-3-4h1V4h4v1h3V3.625S14 1 11.375 1z" fill="currentColor" class="ColorScheme-Text"/><path d="M8 5v4a1 1 0 0 1-.252.662L9 11.332l1.252-1.668A1 1 0 0 1 10 9V5H8z" fill="currentColor" class="ColorScheme-Highlight"/></svg>
